X: 39171
T: Swift, The
R: jig
M: 6/8
K: Bminor
~B3 ~f3|gfe fed|~B3 fef|ede f2z|
~B3 ~f3|gfe fed|cgf Bfe|Aed Gdc|
~B3 fef|gfe fed|~B3 fz f|ede ~f3|
B2B ~f3|gfe fed|cgf ~B3|cBA ~B3||
Bz B fga|gfe ~A3|cz c cde|efg fdB|
~A3 cde|edc G2z|dcB ~F3|Fcf fcF|
~B3 fga|gfe ~A3|cBc cde|efg fdB|
~A3 cde|edc ~G3|dz B ~F3|cBA B2z|

